common/resources/fonts/svg/sign-out.svg

<?xml version="1.0" encoding="UTF-8" standalone="no"?>
<svg width="1024px" height="1024px" viewBox="0 0 1024 1024" version="1.1" xmlns="http://www.w3.org/2000/svg" xmlns:xlink="http://www.w3.org/1999/xlink">
    <!-- Generator: Sketch 41 (35326) - http://www.bohemiancoding.com/sketch -->
    <title>sign-out</title>
    <desc>Created with Sketch.</desc>
    <defs></defs>
    <g id="Page-1" stroke="none" stroke-width="1" fill="none" fill-rule="evenodd">
        <g id="sign-out" fill="#000000">
            <path d="M743.75,897.916667 L319.791667,897.916667 C277.280208,897.916667 242.708333,863.344792 242.708333,820.833333 L242.708333,705.208333 L319.791667,705.208333 L319.791667,820.833333 L743.75,820.833333 L743.75,204.166667 L319.791667,204.166667 L319.791667,319.791667 L242.708333,319.791667 L242.708333,204.166667 C242.708333,161.69375 277.280208,127.083333 319.791667,127.083333 L743.75,127.083333 C786.261458,127.083333 820.833333,161.69375 820.833333,204.166667 L820.833333,820.833333 C820.833333,863.344792 786.261458,897.916667 743.75,897.916667 Z M501.207292,331.045833 L446.709375,385.620833 L535.239583,473.958333 L204.166667,473.958333 L204.166667,551.041667 L534.93125,551.041667 L446.670833,639.45625 L501.245833,693.877083 L682.622917,512.153125 L501.207292,331.045833 Z" id="Combined-Shape"></path>
        </g>
    </g>
</svg>

<svg width="1024" height="1024" viewBox="0 0 1024 1024">
    <path d="M743.75 897.917H319.792c-42.512 0-77.084-34.572-77.084-77.084V705.208h77.084v115.625H743.75V204.167H319.792v115.625h-77.084V204.167c0-42.473 34.572-77.084 77.084-77.084H743.75c42.511 0 77.083 34.61 77.083 77.084v616.666c0 42.512-34.572 77.084-77.083 77.084zM501.207 331.046L446.71 385.62l88.53 88.337H204.168v77.084H534.93l-88.26 88.414 54.575 54.421 181.377-181.724-181.416-181.107z" fill-rule="evenodd"/>
</svg>
